;FLAVOR:Marlin
;TIME:14438
;Filament used: 12.9313m
;Layer height: 0.2
;MINX:57.065
;MINY:57.065
;MINZ:0.2
;MAXX:177.935
;MAXY:177.935
;MAXZ:8
;Generated with Cura_SteamEngine 4.11.0
M140 S50
M105
M190 S50
M104 S200
M105
M109 S200
M82 ;absolute extrusion mode
; Ender 3 Custom Start G-code
G92 E0 ; Reset Extruder
G28 ; Home all axes
G1 Z2.0 F3000 ; Move Z Axis up little to prevent scratching of Heat Bed
G1 X0.1 Y20 Z0.3 F5000.0 ; Move to start position
G1 X0.1 Y200.0 Z0.3 F1500.0 E15 ; Draw the first line
G1 X0.4 Y200.0 Z0.3 F5000.0 ; Move to side a little
G1 X0.4 Y20 Z0.3 F1500.0 E30 ; Draw the second line
G92 E0 ; Reset Extruder
G1 Z2.0 F3000 ; Move Z Axis up little to prevent scratching of Heat Bed
G1 X5 Y20 Z0.3 F5000.0 ; Move over to prevent blob squish
G92 E0
G92 E0
G1 F2700 E-5
;LAYER_COUNT:40
;LAYER:0
M107
G0 F6000 X60.263 Y60.329 Z0.2
;TYPE:SKIRT
G1 F2700 E0
G1 F1200 X60.951 Y59.692 E0.03119
G1 X61.691 Y59.116 E0.06237
G1 X62.477 Y58.604 E0.09357
G1 X63.304 Y58.162 E0.12476
G1 X64.166 Y57.792 E0.15596
G1 X65.056 Y57.496 E0.18716
G1 X65.968 Y57.278 E0.21835
G1 X66.895 Y57.137 E0.24953
G1 X67.766 Y57.078 E0.27857
G1 X68.087 Y57.069 E0.28925
G1 X68.395 Y57.065 E0.29949
G1 X166.227 Y57.065 E3.5534
G1 X167.083 Y57.076 E3.58187
G1 X168.019 Y57.13 E3.61306
G1 X168.947 Y57.262 E3.64423
G1 X169.861 Y57.474 E3.67544
G1 X170.753 Y57.763 E3.70663
G1 X171.618 Y58.126 E3.73783
G1 X172.448 Y58.562 E3.76901
G1 X173.239 Y59.067 E3.80022
G1 X173.983 Y59.638 E3.83142
G1 X174.676 Y60.27 E3.86261
G1 X175.313 Y60.958 E3.8938
G1 X175.888 Y61.699 E3.92499
G1 X176.399 Y62.485 E3.95617
G1 X176.841 Y63.313 E3.98739
G1 X177.21 Y64.175 E4.01858
G1 X177.505 Y65.065 E4.04976
G1 X177.723 Y65.977 E4.08095
G1 X177.863 Y66.905 E4.11216
G1 X177.92 Y67.752 E4.1404
G1 X177.93 Y68.092 E4.15171
G1 X177.935 Y68.415 E4.16246
G1 X177.934 Y166.335 E7.41929
G1 X177.925 Y167.062 E7.44347
G1 X177.874 Y167.999 E7.47468
G1 X177.742 Y168.927 E7.50586
G1 X177.533 Y169.841 E7.53704
G1 X177.246 Y170.734 E7.56824
G1 X176.884 Y171.6 E7.59946
G1 X176.45 Y172.431 E7.63064
G1 X175.946 Y173.222 E7.66184
G1 X175.377 Y173.967 E7.69302
G1 X174.746 Y174.662 E7.72424
G1 X174.059 Y175.3 E7.75542
G1 X173.32 Y175.877 E7.7866
G1 X172.534 Y176.389 E7.8178
G1 X171.708 Y176.832 E7.84898
G1 X170.846 Y177.204 E7.8802
G1 X169.957 Y177.5 E7.91137
G1 X169.045 Y177.72 E7.94257
G1 X168.118 Y177.861 E7.97376
G1 X167.234 Y177.922 E8.00323
G1 X166.913 Y177.931 E8.01391
G1 X166.605 Y177.935 E8.02416
G1 X68.63 Y177.934 E11.28282
G1 X67.932 Y177.925 E11.30604
G1 X66.996 Y177.873 E11.33722
G1 X66.067 Y177.741 E11.36842
G1 X65.153 Y177.531 E11.39962
G1 X64.26 Y177.244 E11.43081
G1 X63.395 Y176.881 E11.46201
G1 X62.564 Y176.447 E11.4932
G1 X61.773 Y175.943 E11.52439
G1 X61.028 Y175.373 E11.55559
G1 X60.334 Y174.742 E11.58679
G1 X59.697 Y174.055 E11.61795
G1 X59.12 Y173.315 E11.64916
G1 X58.608 Y172.529 E11.68036
G1 X58.165 Y171.702 E11.71156
G1 X57.794 Y170.841 E11.74274
G1 X57.498 Y169.951 E11.77394
G1 X57.279 Y169.039 E11.80514
G1 X57.138 Y168.112 E11.83632
G1 X57.078 Y167.223 E11.86596
G1 X57.069 Y166.89 E11.87704
G1 X57.065 Y166.593 E11.88692
G1 X57.066 Y68.589 E15.14654
G1 X57.075 Y67.925 E15.16863
G1 X57.128 Y66.989 E15.19981
G1 X57.26 Y66.06 E15.23102
G1 X57.471 Y65.146 E15.26222
G1 X57.759 Y64.254 E15.2934
G1 X58.122 Y63.389 E15.3246
G1 X58.557 Y62.558 E15.35579
G1 X59.061 Y61.767 E15.38699
G1 X59.631 Y61.023 E15.41816
G1 X60.263 Y60.329 E15.44938
G0 F6000 X60.655 Y60.503
G1 F1200 X61.34 Y59.888 E15.48
G1 X62.075 Y59.335 E15.51059
G1 X62.856 Y58.847 E15.54122
G1 X63.677 Y58.429 E15.57186
G1 X64.53 Y58.084 E15.60247
G1 X65.41 Y57.814 E15.63308
G1 X66.311 Y57.622 E15.66372
G1 X67.224 Y57.508 E15.69433
G1 X67.777 Y57.478 E15.71275
G1 X68.098 Y57.469 E15.72343
G1 X68.395 Y57.465 E15.73331
G1 X166.227 Y57.465 E18.98721
G1 X167.077 Y57.476 E19.01549
G1 X167.996 Y57.529 E19.0461
G1 X168.907 Y57.662 E19.07672
G1 X169.803 Y57.873 E19.10734
G1 X170.677 Y58.161 E19.13795
G1 X171.524 Y58.524 E19.1686
G1 X172.335 Y58.959 E19.19921
G1 X173.105 Y59.463 E19.22981
G1 X173.829 Y60.032 E19.26044
G1 X174.501 Y60.662 E19.29108
G1 X175.116 Y61.347 E19.3217
G1 X175.669 Y62.083 E19.35232
G1 X176.156 Y62.864 E19.38293
G1 X176.573 Y63.685 E19.41355
G1 X176.918 Y64.539 E19.44419
G1 X177.187 Y65.419 E19.4748
G1 X177.379 Y66.32 E19.50544
G1 X177.492 Y67.233 E19.53603
G1 X177.52 Y67.763 E19.55369
G1 X177.53 Y68.103 E19.565
G1 X177.535 Y68.415 E19.57538
G1 X177.534 Y166.33 E22.83204
G1 X177.525 Y167.057 E22.85623
G1 X177.474 Y167.976 E22.88684
G1 X177.343 Y168.888 E22.91748
G1 X177.133 Y169.784 E22.94809
G1 X176.847 Y170.659 E22.97871
G1 X176.486 Y171.506 E23.00933
G1 X176.052 Y172.318 E23.03996
G1 X175.55 Y173.09 E23.07058
G1 X174.982 Y173.815 E23.10122
G1 X174.354 Y174.488 E23.13183
G1 X173.67 Y175.104 E23.16245
G1 X172.935 Y175.658 E23.19306
G1 X172.155 Y176.147 E23.22368
G1 X171.335 Y176.566 E23.25431
G1 X170.482 Y176.912 E23.28492
G1 X169.602 Y177.183 E23.31555
G1 X168.702 Y177.376 E23.34616
G1 X167.788 Y177.491 E23.3768
G1 X167.223 Y177.522 E23.39562
G1 X166.902 Y177.531 E23.4063
G1 X166.605 Y177.535 E23.41618
G1 X68.635 Y177.534 E26.67468
G1 X67.937 Y177.525 E26.6979
G1 X67.018 Y177.473 E26.72851
G1 X66.107 Y177.342 E26.75912
G1 X65.211 Y177.132 E26.78973
G1 X64.336 Y176.845 E26.82036
G1 X63.489 Y176.483 E26.851
G1 X62.677 Y176.049 E26.88162
G1 X61.906 Y175.547 E26.91222
G1 X61.181 Y174.979 E26.94285
G1 X60.508 Y174.35 E26.97349
G1 X59.893 Y173.666 E27.00408
G1 X59.339 Y172.931 E27.0347
G1 X58.851 Y172.15 E27.06533
G1 X58.432 Y171.33 E27.09595
G1 X58.086 Y170.477 E27.12657
G1 X57.816 Y169.597 E27.15719
G1 X57.623 Y168.696 E27.18783
G1 X57.509 Y167.783 E27.21844
G1 X57.478 Y167.212 E27.23746
G1 X57.469 Y166.879 E27.24854
G1 X57.465 Y166.593 E27.25805
G1 X57.466 Y68.594 E30.51751
G1 X57.475 Y67.93 E30.5396
G1 X57.527 Y67.011 E30.57021
G1 X57.659 Y66.1 E30.60083
G1 X57.87 Y65.204 E30.63144
G1 X58.158 Y64.329 E30.66208
G1 X58.52 Y63.483 E30.69269
G1 X58.954 Y62.671 E30.72331
G1 X59.458 Y61.9 E30.75395
G1 X60.026 Y61.176 E30.78455
G1 X60.655 Y60.503 E30.81519
G0 F6000 X61.046 Y60.682
G1 F1200 X61.728 Y60.089 E30.84525
G1 X62.459 Y59.559 E30.87528
G1 X63.234 Y59.096 E30.90531
G1 X64.047 Y58.703 E30.93534
G1 X64.892 Y58.383 E30.96539
G1 X65.761 Y58.14 E30.99541
G1 X66.649 Y57.974 E31.02545
G1 X67.788 Y57.878 E31.06347
G1 X68.109 Y57.869 E31.07415
G1 X68.395 Y57.865 E31.08366
G1 X166.227 Y57.865 E34.33757
G1 X167.071 Y57.876 E34.36564
G1 X167.973 Y57.929 E34.3957
G1 X168.866 Y58.061 E34.42572
G1 X169.744 Y58.272 E34.45575
G1 X170.6 Y58.56 E34.48579
G1 X171.427 Y58.922 E34.51582
G1 X172.219 Y59.357 E34.54587
G1 X172.97 Y59.859 E34.57592
G1 X173.673 Y60.426 E34.60596
G1 X174.323 Y61.053 E34.636
G1 X174.915 Y61.735 E34.66603
G1 X175.445 Y62.466 E34.69606
G1 X175.907 Y63.242 E34.7261
G1 X176.3 Y64.055 E34.75614
G1 X176.618 Y64.9 E34.78616
G1 X176.861 Y65.77 E34.81621
G1 X177.026 Y66.658 E34.84625
G1 X177.121 Y67.775 E34.88353
G1 X177.131 Y68.115 E34.89485
G1 X177.135 Y68.415 E34.90483
G1 X177.134 Y166.325 E38.16133
G1 X177.125 Y167.052 E38.18551
G1 X177.074 Y167.954 E38.21556
G1 X176.943 Y168.848 E38.24561
G1 X176.734 Y169.726 E38.27563
G1 X176.448 Y170.583 E38.30568
G1 X176.087 Y171.411 E38.33572
G1 X175.655 Y172.203 E38.36573
G1 X175.154 Y172.955 E38.39578
G1 X174.588 Y173.659 E38.42582
G1 X173.963 Y174.31 E38.45584
G1 X173.282 Y174.904 E38.4859
G1 X172.551 Y175.435 E38.51595
G1 X171.777 Y175.899 E38.54596
G1 X170.964 Y176.293 E38.57601
G1 X170.12 Y176.613 E38.60603
G1 X169.25 Y176.858 E38.63609
G1 X168.363 Y177.024 E38.66611
G1 X167.212 Y177.122 E38.70453
G1 X166.891 Y177.131 E38.71521
G1 X166.605 Y177.135 E38.72472
G1 X68.64 Y177.134 E41.98305
G1 X67.942 Y177.125 E42.00627
G1 X67.041 Y177.074 E42.03628
G1 X66.147 Y176.942 E42.06634
G1 X65.269 Y176.733 E42.09636
G1 X64.412 Y176.446 E42.12642
G1 X63.585 Y176.085 E42.15643
G1 X62.792 Y175.652 E42.18648
G1 X62.041 Y175.151 E42.21651
G1 X61.337 Y174.585 E42.24655
G1 X60.686 Y173.959 E42.27659
G1 X60.093 Y173.278 E42.30663
G1 X59.563 Y172.547 E42.33666
G1 X59.099 Y171.772 E42.3667
G1 X58.705 Y170.959 E42.39675
G1 X58.385 Y170.115 E42.42677
G1 X58.141 Y169.245 E42.45682
G1 X57.975 Y168.357 E42.48687
G1 X57.878 Y167.202 E42.52542
G1 X57.869 Y166.869 E42.5365
G1 X57.865 Y166.593 E42.54568
G1 X57.866 Y68.6 E45.80494
G1 X57.875 Y67.936 E45.82703
G1 X57.927 Y67.034 E45.85708
G1 X58.059 Y66.141 E45.8871
G1 X58.269 Y65.262 E45.91716
G1 X58.556 Y64.406 E45.94719
G1 X58.918 Y63.579 E45.97722
G1 X59.352 Y62.786 E46.00728
G1 X59.853 Y62.036 E46.03728
G1 X60.42 Y61.332 E46.06735
G1 X61.046 Y60.682 E46.09736
G1 F2700 E41.09736
;MESH:Part3.STL
G0 F6000 X134.35 Y80.962
G0 X132.893 Y80.988
G0 X133.269 Y154.303
G0 X133.475 Y154.935
G0 X133.727 Y155.255
G0 X134.479 Y156.025
;TYPE:WALL-INNER
G1 F2700 E46.09736
G1 F1200 X134.796 Y156.118 E46.10835
G1 X135.108 Y156.162 E46.11883
G1 X135.241 Y156.166 E46.12325
G1 X139.768 Y156.165 E46.27382
G1 X140.077 Y156.14 E46.28413
G1 X140.4 Y156.068 E46.29514
G1 X140.761 Y155.918 E46.30814
G1 X141.088 Y155.706 E46.3211
G1 X141.372 Y155.437 E46.33412
G1 X141.605 Y155.121 E46.34717
G1 X141.775 Y154.771 E46.36012
G1 X141.868 Y154.454 E46.3711
G1 X141.912 Y154.142 E46.38158
G1 X141.916 Y154.009 E46.38601
G1 X141.915 Y80.982 E48.8149
G1 X141.89 Y80.673 E48.82521
G1 X141.818 Y80.35 E48.83621
G1 X141.668 Y79.989 E48.84922
G1 X141.456 Y79.662 E48.86218
G1 X141.187 Y79.378 E48.87519
G1 X140.871 Y79.145 E48.88825
G1 X140.521 Y78.975 E48.90119
G1 X140.204 Y78.882 E48.91218
G1 X139.892 Y78.838 E48.92266
G1 X139.759 Y78.834 E48.92708
G1 X135.232 Y78.835 E49.07765
G1 X134.923 Y78.86 E49.08796
G1 X134.6 Y78.932 E49.09897
G1 X134.239 Y79.082 E49.11197
G1 X133.912 Y79.294 E49.12493
G1 X133.628 Y79.563 E49.13794
G1 X133.395 Y79.879 E49.151
G1 X133.225 Y80.229 E49.16394
G1 X133.132 Y80.546 E49.17493
G1 X133.088 Y80.858 E49.18541
G1 X133.084 Y80.991 E49.18984
G1 X133.085 Y154.018 E51.61872
G1 X133.11 Y154.327 E51.62903
G1 X133.182 Y154.65 E51.64004
G1 X133.332 Y155.011 E51.65304
G1 X133.544 Y155.338 E51.666
G1 X133.813 Y155.622 E51.67902
G1 X134.129 Y155.855 E51.69207
G1 X134.479 Y156.025 E51.70502
G0 F6000 X134.624 Y155.651
;TYPE:WALL-OUTER
G1 F1200 X134.881 Y155.726 E51.71392
G1 X135.142 Y155.763 E51.72269
G1 X135.247 Y155.766 E51.72618
G1 X139.752 Y155.765 E51.87602
G1 X140.017 Y155.744 E51.88486
G1 X140.278 Y155.685 E51.89376
G1 X140.574 Y155.562 E51.90442
G1 X140.84 Y155.39 E51.91496
G1 X141.071 Y155.171 E51.92554
G1 X141.261 Y154.913 E51.9362
G1 X141.401 Y154.626 E51.94682
G1 X141.476 Y154.369 E51.95573
G1 X141.513 Y154.108 E51.96449
G1 X141.516 Y154.003 E51.96799
G1 X141.515 Y80.998 E54.39614
G1 X141.494 Y80.733 E54.40498
G1 X141.435 Y80.472 E54.41388
G1 X141.312 Y80.176 E54.42455
G1 X141.14 Y79.91 E54.43508
G1 X140.921 Y79.679 E54.44567
G1 X140.663 Y79.489 E54.45633
G1 X140.376 Y79.349 E54.46695
G1 X140.119 Y79.274 E54.47585
G1 X139.858 Y79.237 E54.48462
G1 X139.753 Y79.234 E54.48811
G1 X135.248 Y79.235 E54.63795
G1 X134.983 Y79.256 E54.64679
G1 X134.722 Y79.315 E54.65569
G1 X134.426 Y79.438 E54.66635
G1 X134.16 Y79.61 E54.67689
G1 X133.929 Y79.829 E54.68747
G1 X133.739 Y80.087 E54.69813
G1 X133.599 Y80.374 E54.70875
G1 X133.524 Y80.631 E54.71766
G1 X133.487 Y80.892 E54.72642
G1 X133.484 Y80.997 E54.72992
G1 X133.485 Y154.002 E57.15807
G1 X133.506 Y154.267 E57.16692
G1 X133.565 Y154.528 E57.17582
G1 X133.688 Y154.824 E57.18648
G1 X133.86 Y155.09 E57.19701
G1 X134.079 Y155.321 E57.2076
G1 X134.337 Y155.511 E57.21826
G1 X134.624 Y155.651 E57.22888
G0 F6000 X134.466 Y156.061
G1 F2700 E52.22888
G0 F6000 X133.686 Y155.766
G0 X134.656 Y154.673
G0 X110.302 Y154.709
G0 X111.206 Y155.857
G0 X110.4 Y156.068
;TYPE:WALL-INNER
G1 F2700 E57.22888
G1 F1200 X110.761 Y155.918 E57.24188
G1 X111.088 Y155.706 E57.25484
G1 X111.372 Y155.437 E57.26785
G1 X111.605 Y155.121 E57.28091
G1 X111.775 Y154.771 E57.29385
G1 X111.868 Y154.454 E57.30484
G1 X111.912 Y154.142 E57.31532
G1 X111.916 Y154.009 E57.31975
G1 X111.915 Y80.982 E59.74863
G1 X111.89 Y80.673 E59.75894
G1 X111.818 Y80.35 E59.76995
G1 X111.668 Y79.989 E59.78295
G1 X111.456 Y79.662 E59.79591
G1 X111.187 Y79.378 E59.80893
G1 X110.871 Y79.145 E59.82198
G1 X110.521 Y78.975 E59.83493
G1 X110.204 Y78.882 E59.84591
G1 X109.892 Y78.838 E59.85639
G1 X109.759 Y78.834 E59.86082
G1 X105.232 Y78.835 E60.01139
G1 X104.923 Y78.86 E60.0217
G1 X104.6 Y78.932 E60.0327
G1 X104.239 Y79.082 E60.04571
G1 X103.912 Y79.294 E60.05867
G1 X103.628 Y79.563 E60.07168
G1 X103.395 Y79.879 E60.08474
G1 X103.225 Y80.229 E60.09768
G1 X103.132 Y80.546 E60.10867
G1 X103.088 Y80.858 E60.11915
G1 X103.084 Y80.991 E60.12357
G1 X103.085 Y154.018 E62.55246
G1 X103.11 Y154.327 E62.56277
G1 X103.182 Y154.65 E62.57378
G1 X103.332 Y155.011 E62.58678
G1 X103.544 Y155.338 E62.59974
G1 X103.813 Y155.622 E62.61275
G1 X104.129 Y155.855 E62.62581
G1 X104.479 Y156.025 E62.63875
G1 X104.796 Y156.118 E62.64974
G1 X105.108 Y156.162 E62.66022
G1 X105.241 Y156.166 E62.66465
G1 X109.768 Y156.165 E62.81521
G1 X110.077 Y156.14 E62.82552
G1 X110.4 Y156.068 E62.83653
G0 F6000 X110.278 Y155.685
;TYPE:WALL-OUTER
G1 F1200 X110.574 Y155.562 E62.84719
G1 X110.84 Y155.39 E62.85773
G1 X111.071 Y155.171 E62.86832
G1 X111.261 Y154.913 E62.87897
G1 X111.401 Y154.626 E62.88959
G1 X111.476 Y154.369 E62.8985
G1 X111.513 Y154.108 E62.90727
G1 X111.516 Y154.003 E62.91076
G1 X111.515 Y80.998 E65.33892
G1 X111.494 Y80.733 E65.34776
G1 X111.435 Y80.472 E65.35666
G1 X111.312 Y80.176 E65.36732
G1 X111.14 Y79.91 E65.37785
G1 X110.921 Y79.679 E65.38844
G1 X110.663 Y79.489 E65.3991
G1 X110.376 Y79.349 E65.40972
G1 X110.119 Y79.274 E65.41862
G1 X109.858 Y79.237 E65.42739
G1 X109.753 Y79.234 E65.43088
G1 X105.248 Y79.235 E65.58072
G1 X104.983 Y79.256 E65.58956
G1 X104.722 Y79.315 E65.59846
G1 X104.426 Y79.438 E65.60912
G1 X104.16 Y79.61 E65.61966
G1 X103.929 Y79.829 E65.63025
G1 X103.739 Y80.087 E65.6409
G1 X103.599 Y80.374 E65.65152
G1 X103.524 Y80.631 E65.66043
G1 X103.487 Y80.892 E65.6692
G1 X103.484 Y80.997 E65.67269
G1 X103.485 Y154.002 E68.10085
G1 X103.506 Y154.267 E68.10969
G1 X103.565 Y154.528 E68.11859
G1 X103.688 Y154.824 E68.12925
G1 X103.86 Y155.09 E68.13978
G1 X104.079 Y155.321 E68.15037
G1 X104.337 Y155.511 E68.16103
G1 X104.624 Y155.651 E68.17165
G1 X104.881 Y155.726 E68.18055
G1 X105.142 Y155.763 E68.18932
G1 X105.247 Y155.766 E68.19282
G1 X109.752 Y155.765 E68.34265
G1 X110.017 Y155.744 E68.35149
G1 X110.278 Y155.685 E68.36039
G0 F6000 X110.411 Y156.104
G1 F2700 E63.36039
G0 F6000 X111.206 Y155.857
G0 X110.302 Y154.709
G0 X111.206 Y167.6
G0 X111.206 Y166.125
G0 X166.335 Y166.335
;TYPE:WALL-INNER
G1 F2700 E68.36039
G1 F1200 X68.665 Y166.335 E71.60891
G1 X68.665 Y68.665 E74.85743
G1 X166.335 Y68.665 E78.10595
G1 X166.335 Y166.335 E81.35446
G0 F6000 X166.735 Y166.735
;TYPE:WALL-OUTER
G1 F1200 X68.265 Y166.735 E84.62959
G1 X68.265 Y68.265 E87.90471
G1 X166.735 Y68.265 E91.17984
G1 X166.735 Y166.735 E94.45497
G0 F6000 X166.465 Y166.465
G0 X166.225 Y165.945
G0 X165.945 Y165.945
;TYPE:SKIN
G1 F1200 X69.055 Y165.945 E97.67754
G1 X69.055 Y69.055 E100.90011
G1 X165.945 Y69.055 E104.12269
G1 X165.945 Y165.945 E107.34526
G1 F2700 E102.34526
G0 F6000 X166.225 Y165.945
G0 X141.879 Y166.125
G0 X141.879 Y167.6
G0 X140.423 Y154.594
G0 X141.516 Y155.564
G0 X141.879 Y154.81
G1 F2700 E107.34526
G0 F6000 X142.14 Y154.912
G1 F1200 X142.25 Y154.536 E107.35829
G1 X142.302 Y154.175 E107.37042
G1 X142.306 Y154.015 E107.37575
G1 X142.305 Y80.966 E109.80537
