;FLAVOR:Marlin
;TIME:5462
;Filament used: 4.09264m
;Layer height: 0.28
;MINX:80.608
;MINY:98.38
;MINZ:0.28
;MAXX:147.299
;MAXY:136.62
;MAXZ:47.88
;Generated with Cura_SteamEngine 4.11.0
M140 S50
M105
M190 S50
M104 S200
M105
M109 S200
M82 ;absolute extrusion mode
; Ender 3 Custom Start G-code
G92 E0 ; Reset Extruder
G28 ; Home all axes
G1 Z2.0 F3000 ; Move Z Axis up little to prevent scratching of Heat Bed
G1 X0.1 Y20 Z0.3 F5000.0 ; Move to start position
G1 X0.1 Y200.0 Z0.3 F1500.0 E15 ; Draw the first line
G1 X0.4 Y200.0 Z0.3 F5000.0 ; Move to side a little
G1 X0.4 Y20 Z0.3 F1500.0 E30 ; Draw the second line
G92 E0 ; Reset Extruder
G1 Z2.0 F3000 ; Move Z Axis up little to prevent scratching of Heat Bed
G1 X5 Y20 Z0.3 F5000.0 ; Move over to prevent blob squish
G92 E0
G92 E0
G1 F2700 E-5
;LAYER_COUNT:171
;LAYER:0
M107
G0 F6000 X85.219 Y102.762 Z0.28
;TYPE:SKIRT
G1 F2700 E0
G1 F1200 X85.386 Y102.626 E0.01003
G1 X86.138 Y102.065 E0.05372
G1 X86.585 Y101.776 E0.0785
G1 X86.789 Y101.651 E0.08964
G1 X87.609 Y101.195 E0.13333
G1 X88.175 Y100.931 E0.16241
G1 X88.395 Y100.836 E0.17357
G1 X89.271 Y100.502 E0.21723
G1 X89.826 Y100.332 E0.24425
G1 X90.054 Y100.269 E0.25527
G1 X91.203 Y100.017 E0.31004
G1 X91.331 Y99.996 E0.31608
G1 X92.27 Y99.883 E0.36012
G1 X93.38 Y99.799 E0.41195
G1 X115.809 Y98.432 E1.45828
G1 X116.491 Y98.399 E1.49007
G1 X116.935 Y98.386 E1.51076
G1 X117.682 Y98.38 E1.54554
G1 X118.134 Y98.385 E1.56659
G1 X118.429 Y98.394 E1.58033
G1 X118.903 Y98.415 E1.60243
G1 X119.175 Y98.43 E1.61511
G1 X119.58 Y98.458 E1.63402
G1 X119.829 Y98.478 E1.64565
G1 X120.166 Y98.509 E1.66141
G1 X120.6 Y98.558 E1.68174
G1 X121.19 Y98.636 E1.70945
G1 X121.476 Y98.678 E1.72291
G1 X121.74 Y98.72 E1.73536
G1 X122.014 Y98.767 E1.74831
G1 X122.576 Y98.871 E1.77492
G1 X122.913 Y98.938 E1.79092
G1 X123.501 Y99.07 E1.81898
G1 X123.792 Y99.141 E1.83293
G1 X124.31 Y99.274 E1.85783
G1 X124.792 Y99.409 E1.88114
G1 X125.449 Y99.61 E1.91313
G1 X125.926 Y99.768 E1.93653
G1 X126.512 Y99.977 E1.9655
G1 X126.925 Y100.134 E1.98607
G1 X127.513 Y100.368 E2.01554
G1 X127.99 Y100.57 E2.03966
G1 X128.311 Y100.715 E2.05606
G1 X128.556 Y100.83 E2.06867
G1 X129.156 Y101.119 E2.09968
G1 X129.583 Y101.336 E2.12198
G1 X129.857 Y101.483 E2.13646
G1 X130.109 Y101.622 E2.14986
G1 X130.682 Y101.949 E2.18058
G1 X131.03 Y102.156 E2.19943
G1 X131.225 Y102.277 E2.21012
G1 X131.512 Y102.461 E2.22599
G1 X131.905 Y102.722 E2.24796
G1 X132.02 Y102.796 E2.25433
G1 X132.479 Y103.107 E2.28015
G1 X132.867 Y103.385 E2.30237
G1 X133.271 Y103.688 E2.32589
G1 X133.515 Y103.879 E2.34032
G1 X134.217 Y104.446 E2.38233
G1 X134.528 Y104.707 E2.40124
G1 X134.849 Y104.988 E2.42111
G1 X135.149 Y105.259 E2.43993
G1 X135.506 Y105.597 E2.46282
G1 X136.007 Y106.092 E2.49562
G1 X136.224 Y106.313 E2.51004
G1 X136.423 Y106.521 E2.52344
G1 X136.722 Y106.845 E2.54397
G1 X136.993 Y107.152 E2.56304
G1 X137.198 Y107.392 E2.57774
G1 X137.796 Y108.11 E2.62125
G1 X138.167 Y108.581 E2.64917
G1 X138.511 Y109.043 E2.67599
G1 X138.688 Y109.287 E2.69002
G1 X138.915 Y109.61 E2.70841
G1 X139.09 Y109.867 E2.72288
G1 X139.258 Y110.121 E2.73706
G1 X139.431 Y110.391 E2.752
G1 X139.609 Y110.678 E2.76772
G1 X139.842 Y111.073 E2.78908
G1 X140.133 Y111.589 E2.81666
G1 X140.559 Y112.424 E2.86031
G1 X141.039 Y113.673 E2.92262
G1 X141.108 Y113.891 E2.93326
G1 X141.353 Y114.796 E2.97692
G1 X141.488 Y115.507 E3.01062
G1 X141.522 Y115.724 E3.02085
G1 X141.628 Y116.656 E3.06452
G1 X141.651 Y117.722 E3.11417
G1 X141.645 Y117.946 E3.12461
G1 X141.548 Y119.137 E3.18025
G1 X141.536 Y119.225 E3.18438
G1 X141.37 Y120.148 E3.22805
G1 X141.182 Y120.868 E3.2627
G1 X141.109 Y121.114 E3.27465
G1 X140.805 Y122.001 E3.31831
G1 X140.403 Y122.904 E3.36434
G1 X140.289 Y123.132 E3.37621
G1 X139.866 Y123.899 E3.41699
G1 X139.68 Y124.207 E3.43375
G1 X139.533 Y124.444 E3.44673
G1 X139.225 Y124.926 E3.47337
G1 X139.053 Y125.187 E3.48792
G1 X138.828 Y125.518 E3.50656
G1 X138.571 Y125.88 E3.52723
G1 X138.22 Y126.354 E3.5547
G1 X138.014 Y126.624 E3.57051
G1 X137.834 Y126.852 E3.58404
G1 X137.626 Y127.107 E3.59936
G1 X137.151 Y127.673 E3.63377
G1 X136.861 Y128.005 E3.65429
G1 X136.56 Y128.335 E3.67509
G1 X136.279 Y128.633 E3.69416
G1 X136.054 Y128.866 E3.70925
G1 X135.864 Y129.058 E3.72182
G1 X135.652 Y129.267 E3.73569
G1 X135.298 Y129.604 E3.75844
G1 X135.09 Y129.795 E3.77159
G1 X134.609 Y130.225 E3.80164
G1 X134.404 Y130.403 E3.81428
G1 X133.978 Y130.762 E3.84022
G1 X133.707 Y130.981 E3.85644
G1 X133.448 Y131.183 E3.87174
G1 X133.169 Y131.395 E3.88805
G1 X132.963 Y131.548 E3.9
G1 X132.612 Y131.802 E3.92018
G1 X132.348 Y131.987 E3.93519
G1 X131.998 Y132.225 E3.9549
G1 X131.759 Y132.383 E3.96824
G1 X131.303 Y132.676 E3.99348
G1 X130.849 Y132.953 E4.01824
G1 X130.167 Y133.346 E4.05489
G1 X129.725 Y133.587 E4.07833
G1 X129.218 Y133.849 E4.10491
G1 X128.846 Y134.033 E4.12423
G1 X128.299 Y134.29 E4.15238
G1 X127.989 Y134.429 E4.16819
G1 X127.339 Y134.708 E4.20113
G1 X127.122 Y134.796 E4.21204
G1 X126.722 Y134.949 E4.23198
G1 X126.129 Y135.163 E4.26133
G1 X125.865 Y135.254 E4.27434
G1 X125.492 Y135.378 E4.29264
G1 X125.071 Y135.509 E4.31317
G1 X124.499 Y135.674 E4.34089
G1 X124.092 Y135.783 E4.36051
G1 X123.506 Y135.928 E4.38862
G1 X123.149 Y136.01 E4.40568
G1 X122.777 Y136.089 E4.42338
G1 X122.499 Y136.144 E4.43658
G1 X122.068 Y136.224 E4.45699
G1 X121.756 Y136.278 E4.47173
G1 X121.288 Y136.351 E4.49379
G1 X120.945 Y136.399 E4.50992
G1 X120.622 Y136.439 E4.52507
G1 X119.931 Y136.512 E4.55743
G1 X119.478 Y136.55 E4.5786
G1 X118.827 Y136.59 E4.60897
G1 X118.347 Y136.608 E4.63133
G1 X117.617 Y136.619 E4.66533
G1 X117.353 Y136.62 E4.67762
G1 X117.015 Y136.617 E4.69336
G1 X116.679 Y136.608 E4.70901
G1 X116.042 Y136.582 E4.7387
G1 X94.844 Y135.291 E5.72759
G1 X93.411 Y135.202 E5.79445
G1 X92.249 Y135.113 E5.84872
G1 X91.318 Y135.001 E5.89238
G1 X90.799 Y134.903 E5.91697
G1 X90.551 Y134.85 E5.92878
G1 X89.643 Y134.615 E5.97246
G1 X89.141 Y134.449 E5.99708
G1 X88.926 Y134.372 E6.00771
G1 X88.057 Y134.018 E6.0514
G1 X87.632 Y133.813 E6.07337
G1 X87.444 Y133.717 E6.0832
G1 X86.391 Y133.103 E6.13996
G1 X86.253 Y133.012 E6.14766
G1 X85.493 Y132.463 E6.19132
G1 X85.059 Y132.102 E6.2176
G1 X84.881 Y131.946 E6.22862
G1 X84.196 Y131.291 E6.27275
G1 X84.124 Y131.216 E6.2776
G1 X83.329 Y130.291 E6.33439
G1 X83.168 Y130.081 E6.34671
G1 X82.63 Y129.313 E6.39037
G1 X82.224 Y128.624 E6.42761
G1 X82.119 Y128.43 E6.43788
G1 X81.542 Y127.183 E6.50186
G1 X81.456 Y126.962 E6.51291
G1 X81.153 Y126.074 E6.5566
G1 X81.007 Y125.523 E6.58314
G1 X80.951 Y125.288 E6.59439
G1 X80.726 Y124.023 E6.65422
G1 X80.694 Y123.751 E6.66697
G1 X80.621 Y122.669 E6.71747
G1 X80.609 Y121.927 E6.75202
G1 X80.608 Y113.09 E7.16351
G1 X80.62 Y112.348 E7.19806
G1 X80.667 Y111.501 E7.23756
G1 X80.683 Y111.33 E7.24556
G1 X80.866 Y110.112 E7.30291
G1 X80.926 Y109.824 E7.31661
G1 X81.28 Y108.527 E7.37921
G1 X81.349 Y108.324 E7.3892
G1 X81.689 Y107.45 E7.43287
G1 X82.008 Y106.782 E7.46734
G1 X82.12 Y106.567 E7.47862
G1 X82.816 Y105.411 E7.54146
G1 X82.953 Y105.212 E7.55271
G1 X83.517 Y104.463 E7.59636
G1 X84.062 Y103.849 E7.63459
G1 X84.214 Y103.69 E7.64484
G1 X85.219 Y102.762 E7.70853
G0 F6000 X85.471 Y103.072
G1 F1200 X85.638 Y102.936 E7.71856
G1 X86.377 Y102.386 E7.76146
G1 X86.794 Y102.117 E7.78456
G1 X86.998 Y101.992 E7.7957
G1 X87.803 Y101.545 E7.83858
G1 X88.334 Y101.299 E7.86583
G1 X88.554 Y101.204 E7.87699
G1 X89.414 Y100.876 E7.91985
G1 X89.933 Y100.718 E7.94511
G1 X90.161 Y100.655 E7.95612
G1 X91.268 Y100.412 E8.0089
G1 X91.396 Y100.391 E8.01494
G1 X92.301 Y100.282 E8.05738
G1 X93.404 Y100.199 E8.10889
G1 X115.829 Y98.831 E9.15503
G1 X116.511 Y98.798 E9.18682
G1 X116.938 Y98.786 E9.20671
G1 X117.685 Y98.78 E9.2415
G1 X118.127 Y98.785 E9.26208
G1 X118.411 Y98.793 E9.27531
G1 X118.885 Y98.814 E9.2974
G1 X119.147 Y98.829 E9.30962
G1 X119.552 Y98.857 E9.32853
G1 X120.129 Y98.908 E9.3555
G1 X120.547 Y98.954 E9.37508
G1 X121.137 Y99.032 E9.40279
G1 X121.677 Y99.115 E9.42823
G1 X121.941 Y99.16 E9.4407
G1 X122.503 Y99.264 E9.46732
G1 X122.832 Y99.33 E9.48294
G1 X123.026 Y99.372 E9.49218
G1 X123.412 Y99.46 E9.51062
G1 X123.692 Y99.528 E9.52404
G1 X124.21 Y99.661 E9.54894
G1 X124.675 Y99.792 E9.57143
G1 X125.332 Y99.993 E9.60343
G1 X125.792 Y100.145 E9.62598
G1 X126.378 Y100.354 E9.65495
G1 X126.776 Y100.505 E9.67478
G1 X127.366 Y100.74 E9.70435
G1 X127.826 Y100.935 E9.72761
G1 X128.147 Y101.08 E9.74401
G1 X128.383 Y101.19 E9.75614
G1 X128.983 Y101.479 E9.78715
G1 X129.394 Y101.688 E9.80862
G1 X129.668 Y101.835 E9.8231
G1 X129.911 Y101.97 E9.83604
G1 X130.484 Y102.297 E9.86676
G1 X130.819 Y102.496 E9.88491
G1 X131.014 Y102.617 E9.89559
G1 X131.29 Y102.795 E9.91088
G1 X131.643 Y103.03 E9.93063
G1 X131.804 Y103.133 E9.93953
G1 X132.246 Y103.432 E9.96438
G1 X132.634 Y103.71 E9.9866
G1 X132.886 Y103.897 E10.00122
G1 X133.029 Y104.006 E10.00959
G1 X133.263 Y104.19 E10.02345
G1 X133.965 Y104.757 E10.06547
G1 X134.265 Y105.008 E10.08368
G1 X134.581 Y105.285 E10.10325
G1 X134.881 Y105.556 E10.12207
G1 X135.225 Y105.882 E10.14414
G1 X135.726 Y106.377 E10.17694
G1 X135.935 Y106.589 E10.1908
G1 X136.134 Y106.797 E10.2042
G1 X136.422 Y107.11 E10.22401
G1 X136.693 Y107.417 E10.24308
G1 X136.891 Y107.648 E10.25724
G1 X137.489 Y108.366 E10.30075
G1 X137.846 Y108.819 E10.32761
G1 X138.19 Y109.281 E10.35443
G1 X138.36 Y109.517 E10.36798
G1 X138.587 Y109.84 E10.38636
G1 X138.756 Y110.087 E10.40029
G1 X138.924 Y110.341 E10.41447
G1 X139.091 Y110.602 E10.4289
G1 X139.269 Y110.889 E10.44463
G1 X139.494 Y111.269 E10.46519
G1 X139.785 Y111.785 E10.49278
G1 X140.202 Y112.606 E10.53565
G1 X140.658 Y113.793 E10.59486
G1 X140.727 Y114.011 E10.60551
G1 X140.966 Y114.9 E10.64838
G1 X141.093 Y115.569 E10.68008
G1 X141.127 Y115.786 E10.69031
G1 X141.23 Y116.701 E10.73319
G1 X141.251 Y117.711 E10.78023
G1 X141.245 Y117.935 E10.79066
G1 X141.152 Y119.083 E10.84429
G1 X141.14 Y119.171 E10.84843
G1 X140.976 Y120.077 E10.8913
G1 X140.799 Y120.755 E10.92393
G1 X140.726 Y121.001 E10.93588
G1 X140.426 Y121.871 E10.97873
G1 X140.045 Y122.725 E11.02227
G1 X139.931 Y122.953 E11.03414
G1 X139.524 Y123.693 E11.07347
G1 X139.338 Y124.001 E11.09022
G1 X139.196 Y124.229 E11.10273
G1 X138.888 Y124.711 E11.12936
G1 X138.722 Y124.962 E11.14338
G1 X138.497 Y125.293 E11.16201
G1 X138.25 Y125.642 E11.18192
G1 X137.899 Y126.116 E11.20939
G1 X137.7 Y126.376 E11.22463
G1 X137.52 Y126.604 E11.23816
G1 X137.32 Y126.85 E11.25292
G1 X136.845 Y127.416 E11.28733
G1 X136.565 Y127.736 E11.30713
G1 X136.268 Y128.061 E11.32763
G1 X135.991 Y128.355 E11.34644
G1 X135.583 Y128.774 E11.37367
G1 X135.371 Y128.983 E11.38753
G1 X135.024 Y129.313 E11.40983
G1 X134.824 Y129.497 E11.42248
G1 X134.343 Y129.927 E11.45253
G1 X134.145 Y130.099 E11.46474
G1 X133.931 Y130.281 E11.47782
G1 X133.726 Y130.45 E11.49019
G1 X133.455 Y130.669 E11.50642
G1 X133.206 Y130.865 E11.52117
G1 X132.927 Y131.077 E11.53749
G1 X132.728 Y131.224 E11.54901
G1 X132.377 Y131.478 E11.56918
G1 X132.123 Y131.656 E11.58363
G1 X131.773 Y131.894 E11.60333
G1 X131.543 Y132.047 E11.6162
G1 X131.087 Y132.34 E11.64144
G1 X130.649 Y132.606 E11.6653
G1 X129.967 Y132.999 E11.70195
G1 X129.541 Y133.232 E11.72456
G1 X129.034 Y133.494 E11.75113
G1 X128.676 Y133.671 E11.76973
G1 X128.129 Y133.928 E11.79787
G1 X127.83 Y134.062 E11.81313
G1 X127.189 Y134.337 E11.84561
G1 X126.972 Y134.425 E11.85651
G1 X126.586 Y134.573 E11.87576
G1 X125.993 Y134.787 E11.90511
G1 X125.739 Y134.875 E11.91763
G1 X125.366 Y134.999 E11.93593
G1 X124.96 Y135.125 E11.95573
G1 X124.388 Y135.29 E11.98345
G1 X123.996 Y135.395 E12.00235
G1 X123.41 Y135.54 E12.03046
G1 X123.066 Y135.619 E12.04689
G1 X122.694 Y135.698 E12.0646
G1 X122.426 Y135.751 E12.07732
G1 X121.995 Y135.831 E12.09773
G1 X121.695 Y135.882 E12.1119
G1 X121.227 Y135.955 E12.13396
G1 X120.896 Y136.002 E12.14952
G1 X120.573 Y136.042 E12.16468
G1 X119.89 Y136.114 E12.19666
G1 X119.448 Y136.151 E12.21731
G1 X119.279 Y136.163 E12.2252
G1 X118.803 Y136.191 E12.2474
G1 X118.341 Y136.208 E12.26893
G1 X117.611 Y136.219 E12.30293
G1 X117.357 Y136.22 E12.31476
G1 X117.019 Y136.217 E12.33049
G1 X116.695 Y136.209 E12.34559
G1 X116.239 Y136.191 E12.36684
G1 X115.651 Y136.159 E12.39426
G1 X107.46 Y135.658 E12.77638
G1 X93.436 Y134.803 E13.4306
G1 X92.28 Y134.714 E13.48459
G1 X91.366 Y134.604 E13.52746
G1 X90.883 Y134.512 E13.55035
G1 X90.635 Y134.459 E13.56216
G1 X89.744 Y134.228 E13.60502
G1 X89.276 Y134.072 E13.62799
G1 X89.061 Y133.995 E13.63863
G1 X87.814 Y133.456 E13.70189
G1 X87.626 Y133.36 E13.71171
G1 X86.612 Y132.769 E13.76637
G1 X86.474 Y132.678 E13.77406
G1 X85.728 Y132.138 E13.81694
G1 X85.323 Y131.801 E13.84148
G1 X85.145 Y131.645 E13.8525
G1 X84.484 Y131.014 E13.89505
G1 X84.412 Y130.939 E13.89989
G1 X83.647 Y130.047 E13.95461
G1 X83.486 Y129.837 E13.96693
G1 X82.958 Y129.083 E14.00979
G1 X82.576 Y128.434 E14.04486
G1 X82.471 Y128.24 E14.05513
G1 X81.915 Y127.038 E14.1168
G1 X81.829 Y126.817 E14.12784
G1 X81.532 Y125.945 E14.17074
G1 X81.396 Y125.43 E14.19554
G1 X81.34 Y125.195 E14.20679
G1 X81.124 Y123.977 E14.26439
G1 X81.092 Y123.705 E14.27714
G1 X81.021 Y122.662 E14.32582
G1 X81.009 Y121.926 E14.3601
G1 X81.008 Y113.097 E14.77121
G1 X81.02 Y112.355 E14.80577
G1 X81.065 Y111.539 E14.84382
G1 X81.081 Y111.368 E14.85182
G1 X81.258 Y110.193 E14.90715
G1 X81.318 Y109.905 E14.92085
G1 X81.659 Y108.656 E14.98113
G1 X81.728 Y108.453 E14.99112
G1 X82.062 Y107.595 E15.03399
G1 X82.363 Y106.967 E15.06642
G1 X82.475 Y106.752 E15.07771
G1 X83.145 Y105.638 E15.13824
G1 X83.282 Y105.439 E15.14949
G1 X83.836 Y104.704 E15.19234
G1 X84.351 Y104.125 E15.22843
G1 X84.503 Y103.966 E15.23867
G1 X85.471 Y103.072 E15.30003
G0 F6000 X85.724 Y103.382
G1 F1200 X85.891 Y103.246 E15.31005
G1 X86.616 Y102.707 E15.35212
G1 X87.003 Y102.458 E15.37355
G1 X87.207 Y102.333 E15.38469
G1 X87.997 Y101.896 E15.42673
G1 X88.492 Y101.666 E15.45214
G1 X88.712 Y101.571 E15.4633
G1 X89.556 Y101.25 E15.50535
G1 X90.039 Y101.103 E15.52886
G1 X90.267 Y101.04 E15.53987
G1 X91.333 Y100.807 E15.59068
G1 X91.461 Y100.786 E15.59672
G1 X92.331 Y100.681 E15.63753
G1 X93.429 Y100.598 E15.6888
G1 X115.848 Y99.231 E16.73466
G1 X116.53 Y99.198 E16.76646
G1 X116.941 Y99.186 E16.7856
G1 X117.688 Y99.18 E16.82039
G1 X118.12 Y99.185 E16.8405
G1 X118.393 Y99.193 E16.85322
G1 X118.867 Y99.214 E16.87531
G1 X119.12 Y99.228 E16.88711
G1 X119.525 Y99.256 E16.90602
G1 X120.092 Y99.306 E16.93252
G1 X120.495 Y99.351 E16.9514
G1 X121.085 Y99.429 E16.97911
G1 X121.351 Y99.468 E16.99163
G1 X121.868 Y99.553 E17.01603
G1 X122.43 Y99.657 E17.04264
G1 X122.75 Y99.721 E17.05784
G1 X123.323 Y99.85 E17.08519
G1 X123.593 Y99.915 E17.09812
G1 X124.111 Y100.048 E17.12302
G1 X124.558 Y100.174 E17.14465
G1 X125.215 Y100.375 E17.17664
G1 X125.657 Y100.522 E17.19833
G1 X126.243 Y100.731 E17.2273
G1 X126.626 Y100.876 E17.24637
G1 X127.219 Y101.112 E17.27609
G1 X127.661 Y101.299 E17.29844
G1 X127.982 Y101.444 E17.31484
G1 X128.209 Y101.55 E17.3265
G1 X128.809 Y101.839 E17.35751
G1 X129.205 Y102.041 E17.37821
G1 X129.479 Y102.188 E17.39269
G1 X129.713 Y102.317 E17.40513
G1 X130.286 Y102.644 E17.43585
G1 X130.608 Y102.836 E17.45331
G1 X130.803 Y102.957 E17.464
G1 X131.069 Y103.128 E17.47872
G1 X131.412 Y103.356 E17.4979
G1 X131.588 Y103.469 E17.50764
G1 X132.013 Y103.758 E17.53157
G1 X132.401 Y104.036 E17.5538
G1 X132.643 Y104.215 E17.56781
G1 X132.786 Y104.324 E17.57618
G1 X133.012 Y104.501 E17.58955
G1 X133.714 Y105.068 E17.63157
G1 X134.003 Y105.31 E17.64912
G1 X134.312 Y105.582 E17.66829
G1 X134.612 Y105.853 E17.68712
